X:21
T:Hanter Dro An Dro *
R:Hanter Dro / An Dro
O:France
Z:<anamnese@laposte.net>
M:6/8
L:1/8
Q:1/4=100
K:C
A c/B/ cd e2 | d c/B/ dc AE |
A c/B/ cd e2 | d c/B/ dc A2 |
M:6/8
A/B/c/d/ ee d/e/d/c/ | B A/B/ c B/A/ B2 |
A/B/c/d/ ee d/e/d/c/ | B A/B/ c B A2 |
